X:13001
T:My Dancing Day
R:Waltz
C:Trad.
O:England, Cornwall
Z:Paul Hardy's Xmas Tunebook 2019 (see www.paulhardy.net). Creative Commons cc by-nc-sa licenced.
M:3/4
L:1/4
Q:1/4=180
K:G
D|"G" G F G|"D" A B c|"G" d c B|"D" A2 B|"Em" G F G|"D" A B c|"G" d c B|"D" A2 B/c/|
"G" d2 B|"C" c2 B|"A7" A G B|"D" A2 D|"Em" G2 A|"G" B c d|"D7" c B A|"G" G2 B|
"Am" A2 B/c/|"D7" d3|"G"B G B|"D" A2 B|"A7" A2 B|"D" A3-|A z D|"Em" G2 A|"G" B c d|"D7" c B A|"G" G2|]
W:
W:Tomorrow shall be my dancing day: I would my true love did so chance;
W:To see the legend of my play, To call my true love to my dance
W:Sing O my love, O my love, my love, my love; This have I done for my true love.
% --------------------------------- N ---------------------------------------
% --------------------------------- O ---------------------------------------

